src/normal/vol_i.svg

<!-- Generated by IcoMoon.io -->
<svg version="1.1" xmlns="http://www.w3.org/2000/svg" width="24" height="24" viewBox="0 0 24 24">
<title>volume-increase</title>
<path d="M11.768 1l-4 5h-4c-1.655 0-2.768 1.596-2.768 3.25v5.75c0 1.654 1.113 3 2.768 3h4l4 5c1 0 2.232 0 2.232 0v-22c-1 0-1.232 0-2.232 0zM7 16h-3.232c-0.553 0-0.768-0.449-0.768-1v-5.75c0-0.551 0.215-1.25 0.768-1.25h3.232v8zM12 20l-4-4v-8l4-4v16zM23 11h-2v-2h-2v2h-2v2h2v2h2v-2h2z"></path>
</svg>

<svg xmlns="http://www.w3.org/2000/svg" width="24" height="24"><path d="M11.768 1l-4 5h-4C2.113 6 1 7.596 1 9.25V15c0 1.654 1.113 3 2.768 3h4l4 5H14V1h-2.232zM7 16H3.768C3.215 16 3 15.551 3 15V9.25C3 8.699 3.215 8 3.768 8H7v8zm5 4l-4-4V8l4-4v16zm11-9h-2V9h-2v2h-2v2h2v2h2v-2h2z"/></svg>
